Dominus_Funeral/22/apps/youtrack.svg

<svg xmlns="http://www.w3.org/2000/svg" width="24" height="24" version="1"><defs><linearGradient id="a"><stop offset="0" stop-color="#040000"/><stop offset="1" stop-opacity="0"/></linearGradient></defs><path d="M1 1v22h22V1H1zm5.65 2.78L8.4 5.53l-.76.79v1.9L9.3 9.88V6.32l-.79-.79 1.75-1.75L12 5.53l-.76.79v2.83l-1.87 1.82v2.71l.79.79-1.75 1.75-1.73-1.75.78-.79v-2.56L5.7 9.36V6.32l-.79-.79 1.75-1.75zm7.16.02h5.29l-1.91 1.92h-.97v7.96l.79.79-1.75 1.75-1.73-1.75.77-.79V5.72h-2.4l1.9-1.92zM7.1 17.46h9.78v1.9H7.11v-1.9z" fill="#1a1a1a"/></svg>

<?xml version="1.0" encoding="UTF-8" standalone="no"?>
<svg
   xmlns:dc="http://purl.org/dc/elements/1.1/"
   xmlns:cc="http://creativecommons.org/ns#"
   xmlns:rdf="http://www.w3.org/1999/02/22-rdf-syntax-ns#"
   xmlns:svg="http://www.w3.org/2000/svg"
   xmlns="http://www.w3.org/2000/svg"
   xmlns:sodipodi="http://sodipodi.sourceforge.net/DTD/sodipodi-0.dtd"
   xmlns:inkscape="http://www.inkscape.org/namespaces/inkscape"
   width="24"
   height="24"
   version="1"
   id="svg11"
   sodipodi:docname="youtrack.svg"
   inkscape:version="0.92.4 (5da689c313, 2019-01-14)">
  <metadata
     id="metadata15">
    <rdf:RDF>
      <cc:Work
         rdf:about="">
        <dc:format>image/svg+xml</dc:format>
        <dc:type
           rdf:resource="http://purl.org/dc/dcmitype/StillImage" />
        <dc:title></dc:title>
      </cc:Work>
    </rdf:RDF>
  </metadata>
  <sodipodi:namedview
     pagecolor="#ffffff"
     bordercolor="#666666"
     borderopacity="1"
     objecttolerance="10"
     gridtolerance="10"
     guidetolerance="10"
     inkscape:pageopacity="0"
     inkscape:pageshadow="2"
     inkscape:window-width="1138"
     inkscape:window-height="480"
     id="namedview13"
     showgrid="false"
     inkscape:zoom="9.8333333"
     inkscape:cx="1.0677966"
     inkscape:cy="12"
     inkscape:window-x="0"
     inkscape:window-y="25"
     inkscape:window-maximized="0"
     inkscape:current-layer="svg11" />
  <defs
     id="defs7">
    <linearGradient
       id="a">
      <stop
         offset="0"
         stop-color="#040000"
         id="stop2" />
      <stop
         offset="1"
         stop-opacity="0"
         id="stop4" />
    </linearGradient>
  </defs>
  <path
     d="M 1,1 V 23 H 23 V 1 Z M 6.65,3.78 8.4,5.53 7.64,6.32 v 1.9 L 9.3,9.88 V 6.32 L 8.51,5.53 10.26,3.78 12,5.53 11.24,6.32 v 2.83 l -1.87,1.82 v 2.71 l 0.79,0.79 -1.75,1.75 -1.73,-1.75 0.78,-0.79 V 11.12 L 5.7,9.36 V 6.32 L 4.91,5.53 6.66,3.78 Z m 7.16,0.02 h 5.29 l -1.91,1.92 h -0.97 v 7.96 l 0.79,0.79 -1.75,1.75 -1.73,-1.75 0.77,-0.79 V 5.72 H 11.9 L 13.8,3.8 Z M 7.1,17.46 h 9.78 v 1.9 H 7.11 v -1.9 z"
     id="path9"
     inkscape:connector-curvature="0"
     style="fill:#1a1a1a" />
</svg>
